X:6
T:1st Cello Suite, 6 - Minuet 2
C:J.S. Bach
N:Edited by Jack Roberts
L:1/8
Q:1/4=104
M:3/4
K:C
|: fe fA _BD | C2 e2 A2 | d^c dF G_B, | A,E Ad ^ce | fe fA _BD | C2 e2 A2 | d^c dF G_B, | 
A,d ^c4 :|: A^c eg _ba | gf ef d2 | GB df ag | fe de c_B | Ac fe fA | _Bd fe fa | 
g_b af ce | fc Ac F2 | ^FA c_e dc | _Bd ga _b2 | EG _Bd cB | Ac fg a2 | ^CE G_B AG | 
FA de fd | Gf ed A^c | D6 :| 
 


